X: 25465
T: Marche Du Verner
R: slide
M: 12/8
K: Gmajor
DE FGA|:B3- B3- BAG GFE|D3- D3- D2 G GAG|F3- F3- Fed ced|B3- B3- BDE FEF|
B3- B3- BAG GFE|D3- D3- D2 G GAG|F3- F3- Fdd dcA|1 GDB GDB GDE cAF:|2 GDB GDB G2||
d d2 e|fed fed fed cBA|GBd gGe d3- d2 g|fed fed fed cBA|GBd GBe d3- d2 g|
fed fed fed cBA|GBd gGe d3- d2 g|fed fed fed cEF|GBd gdB G||

